X:1
T:Title
%%score { 1 | 2 }
L:1/8
M:3/4
K:C
V:1 treble nm="Grand Piano"
V:2 bass 
V:1
 z2 z2[Q:1/4=96] [EG]2 | [EG]3 [EG] [CE][FA] | [FA]2 [EG]2 [Gc]2 | c3 c AB |[M:2/4] [Ec]4 | %5
[M:1/4] [EG]2 |[M:3/4] [FA]3 [Ac] [GB][FA] | [FA]2 [EG]2 [_EA]2 | B3 c BA |[M:2/4] [B,DG]4 | %10
[M:1/4] G2 |[M:3/4] d3 B AB | [Ec]2 [EG]2 G2 | d3 B c[Ad] |[M:2/4] [^Ge]4 |[M:1/4] [Ge]2 | %16
[M:3/4] [Ad]2 A2 dd | [Gc]2 G2 [Gc]2 | [FB]3 [FA] [FB]G |[M:2/4] [Ec]4 |] %20
V:2
 z2 z2 [C,C]2 | [C,C]3 [C,C] [C,G,][C,C] | [C,C]2 [C,C]2 [E,C]2 | [G,DF]3 [G,DF] [G,DF][G,F] | %4
[M:2/4][K:bass] [C,G,]4 |[M:1/4] [C,C]2 |[M:3/4] [F,C]3 [F,C] [F,C][F,C] | [C,C]2 [C,C]2 [C,G,]2 | %8
 [D,G,D]3 [D,A,D] [D,G,D][D,CD] |[M:2/4] G,,4 |[M:1/4] [G,B,]2 | %11
[M:3/4][K:treble] [G,B,F]3 [G,DF] [G,B,F][G,F] | [C,G,]2 [C,C]2 [E,C]2 | %13
 [G,B,F]3 [G,DF][K:bass] [A,CE][F,A,] |[M:2/4] [E,B,]4 |[M:1/4] [E,B,]2 | %16
[M:3/4] [F,A,]2 [F,CF]2 [F,A,F][F,A,F] | [E,C]2 [E,C]2 [_E,C]2 | [D,G,]3 [D,G,] [G,,G,][G,F] | %19
[M:2/4] [C,G,]4 |] %20

